!!!COM:	Bach, Johann Sebastian
!!!CDT:	1685/02/21/-1750/07/28/
!!!OTL@@DE:	Meines Lebens letzte Zeit
!!!SCT:	BWV 381
!!!PC#:	346
!!!AGN:	chorale
**kern	**kern	**kern	**kern
*ICvox	*ICvox	*ICvox	*ICvox
*Ibass	*Itenor	*Ialto	*Isoprn
*I"Bass	*I"Tenor	*I"Alto	*I"Soprano
*clefF4	*clefGv2	*clefG2	*clefG2
*k[f#]	*k[f#]	*k[f#]	*k[f#]
*e:	*e:	*e:	*e:
*M4/4	*M4/4	*M4/4	*M4/4
*met(c)	*met(c)	*met(c)	*met(c)
*MM100	*MM100	*MM100	*MM100
=1-	=1-	=1-	=1-
4EE	4e	4g	4b
[4E	4e	4g	4b
8EL]	4A	4f#	4cc
8D#J	.	.	.
8EL	4G	8gL	4b
8GJ	.	8f#J	.
=2	=2	=2	=2
2C	4G	8eL	4b
.	.	8d#J	.
.	8F#L	4e	4a
.	8EJ	.	.
2BB;	2F#;	2d#;	2b;
=3	=3	=3	=3
4GG	8BL	8gL	4ddnX
.	8cJ	8aJ	.
[4G	[4dnX	8bL	4dd
.	.	8aJ	.
8GL]	4d]	4b	4ee
8F#J	.	.	.
8GL	4c	4e	4ee
8cJ	.	.	.
=4	=4	=4	=4
4F#	4d	8dL	4a
.	.	8gJ	.
8EL	4d	4f#	8ddL
8DJ	.	.	8ccJ
4G	4d	4g	4b
4GG;	4d;	4g;	4b;
=5	=5	=5	=5
8cL	4c	4e	4.g
8BJ	.	.	.
4c	4c	4e	.
.	.	.	8a
4D#	4B	4f#	4b
4E	4B	4e	8aL
.	.	.	8gJ
=6	=6	=6	=6
4AA	4c	4e	4.f#
4BB	8.BL	4d#	.
.	.	.	8e
.	16AJk	.	.
2EE;	2G;	2B;	2e;
=7	=7	=7	=7
8EL	4e	4g	4.b
8F#J	.	.	.
[4G	4dnX	4g	.
.	.	.	8cc
8GL]	4d	4a	4ddnX
8F#J	.	.	.
8GL	4d	[4g	4b
8BJ	.	.	.
=8	=8	=8	=8
8EL	8cL	8gL]	4cc
8DJ	8dJ	8f#J	.
4C	4e	4.g	8bL
.	.	.	8aJ
4D	8.dL	.	4a
.	.	8f#	.
.	16cJk	.	.
4GG;	4B;	4d;	4g;
=9	=9	=9	=9
8GL	4d	8gL	4b
8F#J	.	8aJ	.
8EL	8gL	4b	4b
8DJ	8f#J	.	.
4C	8eL	4b	4ee
.	8dJ	.	.
4C#	4e	8aL	4ee
.	.	[8gJ	.
=10	=10	=10	=10
2D;	4d	8gL]	4a
.	.	16f#L	.
.	.	16eJJ	.
.	4d;	4f#;	4a;
4G	4d	4g	4b
8F#L	4e	4g	4cc
8EJ	.	.	.
=11	=11	=11	=11
8F#L	4A	8aL	4dd
8EJ	.	8gJ	.
8F#L	8dL	4a	4dd
8BJ	8f#J	.	.
8EL	8eL	8g	4cc
8F#J	8dJ	4a	.
4G	[4d	.	4b
.	.	[8g	.
=12	=12	=12	=12
2D;	4d]	8gL]	4a
.	.	16f#L	.
.	.	16eJJ	.
.	4d;	4f#;	4a;
8GL	4d	4g	4.b
8F#J	.	.	.
[4E	4e	4g	.
.	.	.	8cc
=13	=13	=13	=13
8EL]	4B	8g#L	4dd
8DJ	.	8f#J	.
8EL	4e	8g#L	4b
8G#J	.	[8bJ	.
[8AAL	4e	8bL]	4cc
8AAJ]	.	8aJ	.
8BBL	4d	[4g	4b
8CJ	.	.	.
=14	=14	=14	=14
4D	4d	8gL]	4a
.	.	8f#J	.
4D#	8BL	4f#	4b
.	8AJ	.	.
8EL	4GnX	4e	4b
8GJ	.	.	.
8CL	8AL	[4e	8aL
8BBJ	8BJ	.	8gJ
=15	=15	=15	=15
4AA	4c	4e]	2f#
4BB	8BL	4d#	.
.	8AJ	.	.
2EE;	2G#;	2B;	2e;
==	==	==	==
*-	*-	*-	*-
!!!hum2abc: -Q ''
!!!title: @{PC#}. @{OTL@@DE}
!!!YOR1: 371 vierstimmige Choralges&auml;nge von Johann Sebastian Bach, 
!!!YOR2: 4th ed. by Alfred D&ouml;rffel (Leipzig: Breitkopf und H&auml;rtel, 
!!!YOR2: c.1875). 178 pp. Plate "V.A.10".  reprint: J.S. Bach, 371 Four-Part 
!!!YOR4: Chorales (New York: Associated Music Publishers, Inc., c.1940).
!!!SMS: B&H, 4th ed, Alfred D&ouml;rffel, c.1875, plate V.A.10
!!!EED:  Craig Stuart Sapp
!!!EEV:  2009/05/22
